_icons/SVG/552-krokorok-shiny.svg

<svg xmlns="http://www.w3.org/2000/svg" viewBox="0 0 32 32"><title>552-krokorok-shiny</title><path d="M12.50634,28.487c0-1.97518-.39768-4.03822-2.31813-3.57639a1.848,1.848,0,0,0-1.87614.46557,5.43977,5.43977,0,0,0,1.26564,1.12877,1.66952,1.66952,0,0,0-.65564,1.20468,1.80724,1.80724,0,0,1-1.0886-.15956,3.57937,3.57937,0,0,0,2.16671,2.62949h2.56045C12.54239,29.73221,12.50634,29.1786,12.50634,28.487Z" style="fill:#8e7763"/><path d="M8.92207,27.70961a1.66952,1.66952,0,0,1,.65564-1.20468,5.43977,5.43977,0,0,1-1.26564-1.12877,2.49324,2.49324,0,0,0-.4786,2.17389A1.80724,1.80724,0,0,0,8.92207,27.70961Z" style="fill:#cbeb6b"/><path d="M12.56063,30.17954H10.00018c-.28663.68126,1.02624.97125,2.41844,1.24186A2.43189,2.43189,0,0,0,12.56063,30.17954Z" style="fill:#cbeb6b"/><path d="M6.86666,32.00451c.72785,0,1.36347.00293,1.91937.00337l-.78983-.80763C7.14166,31.32751,5.2062,31.72469,6.86666,32.00451Z" style="fill:#edeeee"/><path d="M12.41862,31.4214c-1.3922-.27061-2.70507-.5606-2.41844-1.24186l-.42247-.087c-.78666-.105-1.48387.17792-1.58151,1.10773l.78983.80763C11.21382,32.00972,12.11019,31.96408,12.41862,31.4214Z" style="fill:#8e7763"/><path d="M13.2642,16.3668l.32871-1.46429-.63631-1.64838-.08194,1.82059A18.19751,18.19751,0,0,0,9.95676,17.101l.9342,1.07156A8.96957,8.96957,0,0,1,13.2642,16.3668Z" style="fill:#988371"/><path d="M8.26566,22.58629l.40665-.707c.0293-.08137.06738-.152.098-.23171l-.569-.25058Z" style="fill:#edeeee"/><polygon points="7.554 22.261 8.201 21.397 7.495 21.397 7.554 22.261" style="fill:#edeeee"/><path d="M8.6123,18.45291a9.30706,9.30706,0,0,0-1.41178,2.219l-.098.33506.39234.39006h.70649l.569.25058A11.55351,11.55351,0,0,1,9.7754,19.616Z" style="fill:#988371"/><polygon points="6.847 21.879 7.495 21.397 7.102 21.007 6.847 21.879" style="fill:#edeeee"/><path d="M8.6123,18.45291,9.7754,19.616a9.46661,9.46661,0,0,1,1.11556-1.4435L9.95676,17.101A12.20628,12.20628,0,0,0,8.6123,18.45291Z" style="fill:#cbeb6b"/><path d="M12.9566,14.1383c-.17946,3.68128-2.00049,7.3428-3.53915,11.00774,2.31356,4.26814,3.81732,4.47417,6.59568,4.47417V14.70908Z" style="fill:#9aa6d6"/><path d="M12.84815,15.001c0,.65539,1.54336.996,3.165,1.02974V2.32446C13.80485-6.0468-1.30328,11.01737,12.84815,15.001Z" style="fill:#9d8978"/><path d="M9.65907,4.31763c-1.27561,4.22549,2.8303,6.69974,4.58427,4.46469h1.76979V5.1149Z" style="fill:#d9f07d"/><ellipse cx="12.60797" cy="6.86888" rx="0.87699" ry="1.5148" style="fill:#b9bfbe"/><circle cx="12.50636" cy="6.1507" r="0.45025" style="fill:#edeeee"/><path d="M12.9566,11.01737c0-.21448,1.52855-.32178,3.05653-.32165v-1.073C14.48515,9.62237,12.9566,10.08731,12.9566,11.01737Z" style="fill:#e6f490"/><ellipse cx="13.59289" cy="12.39577" rx="2.42024" ry="1.74254" style="fill:#a28f7f"/><ellipse cx="13.59289" cy="12.39577" rx="0.38425" ry="0.67767" transform="translate(-4.37678 8.45716) rotate(-30)" style="fill:#373f3f"/><path d="M12.35181,17.5922c-.16922.60955-.35986,1.21892-.57758,1.8279a42.1798,42.1798,0,0,0,4.2389.18975V17.69753C14.68068,17.694,13.36457,17.65939,12.35181,17.5922Z" style="fill:#d9f07d"/><path d="M11.01065,21.397c-.36163.87927-.74082,1.75835-1.11885,2.63749,1.48132.11589,3.81242.17164,6.12133.16858V21.4947C14.22408,21.49718,12.42224,21.46514,11.01065,21.397Z" style="fill:#d9f07d"/><path d="M10.00018,26.15613c1.99927,3.28189,3.47532,3.46408,6.013,3.46408V26.74865A26.85423,26.85423,0,0,1,10.00018,26.15613Z" style="fill:#d9f07d"/><path d="M19.49366,28.49227c0-1.97519.39768-4.03822,2.31813-3.5764a1.84807,1.84807,0,0,1,1.87614.46557,5.43982,5.43982,0,0,1-1.26564,1.12878,1.66952,1.66952,0,0,1,.65564,1.20468,1.80724,1.80724,0,0,0,1.0886-.15956,3.57939,3.57939,0,0,1-2.16671,2.62949H19.43937C19.45761,29.7375,19.49366,29.18389,19.49366,28.49227Z" style="fill:#876f5d"/><path d="M23.07793,27.7149a1.66952,1.66952,0,0,0-.65564-1.20468,5.43982,5.43982,0,0,0,1.26564-1.12878,2.49327,2.49327,0,0,1,.4786,2.1739A1.80724,1.80724,0,0,1,23.07793,27.7149Z" style="fill:#bee758"/><path d="M19.43937,30.18483h2.56045c.28663.68125-1.02624.97125-2.41844,1.24186A2.43191,2.43191,0,0,1,19.43937,30.18483Z" style="fill:#bee758"/><path d="M25.13334,32.0098c-.72785,0-1.36347.00292-1.91937.00337l.78983-.80763C24.85834,31.3328,26.7938,31.73,25.13334,32.0098Z" style="fill:#e3e5e5"/><path d="M19.58138,31.42669c1.3922-.27061,2.70507-.56061,2.41844-1.24186l.42247-.087c.78666-.10495,1.48387.17793,1.58151,1.10774l-.78983.80763C20.78618,32.015,19.88981,31.96937,19.58138,31.42669Z" style="fill:#876f5d"/><path d="M18.7358,16.37209l-.32871-1.46429.63631-1.64838L19.12534,15.08a18.19687,18.19687,0,0,1,2.9179,2.02623L21.109,18.1778A8.96936,8.96936,0,0,0,18.7358,16.37209Z" style="fill:#8e7763"/><path d="M23.73434,22.59157l-.40665-.707c-.0293-.08136-.06738-.152-.098-.2317l.569-.25059Z" style="fill:#e3e5e5"/><polygon points="24.446 22.267 23.799 21.402 24.505 21.402 24.446 22.267" style="fill:#e3e5e5"/><path d="M23.3877,18.4582a9.307,9.307,0,0,1,1.41178,2.219l.098.33507-.39234.39005h-.70649l-.569.25059A11.55351,11.55351,0,0,0,22.2246,19.6213Z" style="fill:#8e7763"/><polygon points="25.153 21.885 24.505 21.402 24.898 21.012 25.153 21.885" style="fill:#e3e5e5"/><path d="M23.3877,18.4582l-1.1631,1.1631A9.46612,9.46612,0,0,0,21.109,18.1778l.9342-1.07156A12.20542,12.20542,0,0,1,23.3877,18.4582Z" style="fill:#bee758"/><path d="M19.0434,14.14359c.17946,3.68128,2.00049,7.34279,3.53915,11.00774-2.31356,4.26814-3.81732,4.47416-6.59568,4.47416V14.71436Z" style="fill:#8694d1"/><path d="M19.15185,15.00627c0,.65538-1.54336.996-3.165,1.02974V2.32974C18.19515-6.04152,33.30328,11.02266,19.15185,15.00627Z" style="fill:#988371"/><path d="M22.34093,4.32292c1.27561,4.22548-2.8303,6.69974-4.58427,4.46469H15.98687V5.12019Z" style="fill:#cbeb6b"/><ellipse cx="19.39203" cy="6.87417" rx="0.87699" ry="1.5148" style="fill:#abb2b1"/><circle cx="19.49364" cy="6.15599" r="0.45025" style="fill:#e3e5e5"/><path d="M19.0434,11.02266c0-.21448-1.52855-.32178-3.05653-.32166V9.628C17.51485,9.62766,19.0434,10.0926,19.0434,11.02266Z" style="fill:#d9f07d"/><ellipse cx="18.40711" cy="12.40105" rx="2.42024" ry="1.74254" style="fill:#9d8978"/><ellipse cx="18.40711" cy="12.40105" rx="0.67767" ry="0.38425" transform="translate(-1.53607 22.14155) rotate(-60)" style="fill:#2b3332"/><path d="M19.64819,17.59749c.16922.60955.35986,1.21891.57758,1.82789a42.17682,42.17682,0,0,1-4.2389.18975V17.70282C17.31932,17.69926,18.63543,17.66468,19.64819,17.59749Z" style="fill:#cbeb6b"/><path d="M20.98935,21.40228c.36163.87927.74082,1.75835,1.11885,2.6375-1.48132.11588-3.81242.17163-6.12133.16858V21.5C17.77592,21.50247,19.57776,21.47043,20.98935,21.40228Z" style="fill:#cbeb6b"/><path d="M21.99982,26.16142c-1.99927,3.28189-3.47532,3.46407-6.01295,3.46407V26.75394A26.85423,26.85423,0,0,0,21.99982,26.16142Z" style="fill:#cbeb6b"/></svg>

<svg xmlns="http://www.w3.org/2000/svg" viewBox="0 0 32 32"><path d="M12.506 28.487c0-1.975-.397-4.038-2.318-3.576a1.848 1.848 0 00-1.876.465 5.44 5.44 0 001.266 1.129 1.67 1.67 0 00-.656 1.205 1.807 1.807 0 01-1.089-.16A3.58 3.58 0 0010 30.18h2.56c-.018-.448-.054-1.001-.054-1.693z" fill="#8e7763"/><path d="M8.922 27.71a1.67 1.67 0 01.656-1.205 5.44 5.44 0 01-1.266-1.129 2.493 2.493 0 00-.479 2.174 1.807 1.807 0 001.09.16zm3.638 2.47H10c-.286.68 1.026.97 2.419 1.241a2.432 2.432 0 00.142-1.241z" fill="#cbeb6b"/><path d="M6.867 32.005c.728 0 1.363.002 1.919.003l-.79-.808c-.854.128-2.79.525-1.13.805z" fill="#edeeee"/><path d="M12.419 31.421c-1.393-.27-2.705-.56-2.419-1.241l-.422-.087c-.787-.105-1.484.177-1.582 1.107l.79.808c2.428.002 3.324-.044 3.633-.587z" fill="#8e7763"/><path d="M13.264 16.367l.329-1.464-.636-1.649-.082 1.82a18.198 18.198 0 00-2.918 2.027l.934 1.072a8.97 8.97 0 012.373-1.806z" fill="#988371"/><path d="M8.266 22.586l.406-.707c.03-.081.068-.152.098-.231l-.569-.251zm-.712-.325l.647-.864h-.706l.059.864z" fill="#edeeee"/><path d="M8.612 18.453a9.307 9.307 0 00-1.411 2.219l-.098.335.392.39H8.2l.57.25a11.554 11.554 0 011.004-2.031z" fill="#988371"/><path fill="#edeeee" d="M6.847 21.879l.648-.482-.393-.39-.255.872z"/><path d="M8.612 18.453l1.163 1.163a9.467 9.467 0 011.116-1.444l-.934-1.071a12.206 12.206 0 00-1.345 1.352z" fill="#cbeb6b"/><path d="M12.957 14.138c-.18 3.682-2 7.343-3.54 11.008 2.314 4.268 3.818 4.474 6.596 4.474V14.71z" fill="#9aa6d6"/><path d="M12.848 15.001c0 .655 1.544.996 3.165 1.03V2.324c-2.208-8.37-17.316 8.693-3.165 12.677z" fill="#9d8978"/><path d="M9.66 4.318c-1.277 4.225 2.83 6.7 4.583 4.464h1.77V5.115z" fill="#d9f07d"/><ellipse cx="12.608" cy="6.869" rx=".877" ry="1.515" fill="#b9bfbe"/><circle cx="12.506" cy="6.151" r=".45" fill="#edeeee"/><path d="M12.957 11.017c0-.214 1.528-.321 3.056-.321V9.623c-1.528 0-3.056.464-3.056 1.394z" fill="#e6f490"/><ellipse cx="13.593" cy="12.396" rx="2.42" ry="1.743" fill="#a28f7f"/><ellipse cx="13.593" cy="12.396" rx=".384" ry=".678" transform="rotate(-30 13.593 12.396)" fill="#373f3f"/><path d="M12.352 17.592c-.17.61-.36 1.22-.578 1.828a42.18 42.18 0 004.24.19v-1.912a61.161 61.161 0 01-3.662-.106zm-1.342 3.805c-.361.88-.74 1.758-1.118 2.637 1.481.116 3.812.172 6.121.17v-2.71c-1.789.003-3.59-.029-5.002-.097zM10 26.156c2 3.282 3.476 3.464 6.013 3.464v-2.87A26.854 26.854 0 0110 26.156z" fill="#d9f07d"/><path d="M19.494 28.492c0-1.975.397-4.038 2.318-3.576a1.848 1.848 0 011.876.465 5.44 5.44 0 01-1.266 1.13 1.67 1.67 0 01.656 1.204 1.807 1.807 0 001.089-.16A3.58 3.58 0 0122 30.185h-2.56c.018-.447.054-1.001.054-1.693z" fill="#876f5d"/><path d="M23.078 27.715a1.67 1.67 0 00-.656-1.205 5.44 5.44 0 001.266-1.129 2.493 2.493 0 01.479 2.174 1.807 1.807 0 01-1.09.16zm-3.638 2.47H22c.286.681-1.026.971-2.419 1.242a2.432 2.432 0 01-.142-1.242z" fill="#bee758"/><path d="M25.133 32.01c-.728 0-1.363.003-1.919.003l.79-.807c.854.127 2.79.524 1.13.804z" fill="#e3e5e5"/><path d="M19.581 31.427c1.393-.27 2.705-.56 2.419-1.242l.422-.087c.787-.105 1.484.178 1.582 1.108l-.79.807c-2.428.002-3.324-.044-3.633-.586z" fill="#876f5d"/><path d="M18.736 16.372l-.329-1.464.636-1.649.082 1.821a18.197 18.197 0 012.918 2.026l-.934 1.072a8.97 8.97 0 00-2.373-1.806z" fill="#8e7763"/><path d="M23.734 22.592l-.406-.707c-.03-.082-.068-.152-.098-.232l.569-.25zm.712-.325l-.647-.865h.706l-.059.865z" fill="#e3e5e5"/><path d="M23.388 18.458a9.307 9.307 0 011.411 2.22l.098.334-.392.39H23.8l-.57.25a11.554 11.554 0 00-1.004-2.03z" fill="#8e7763"/><path fill="#e3e5e5" d="M25.153 21.885l-.648-.483.393-.39.255.873z"/><path d="M23.388 18.458l-1.163 1.163a9.466 9.466 0 00-1.116-1.443l.934-1.072a12.205 12.205 0 011.345 1.352z" fill="#bee758"/><path d="M19.043 14.144c.18 3.68 2 7.342 3.54 11.007-2.314 4.268-3.818 4.474-6.596 4.474v-14.91z" fill="#8694d1"/><path d="M19.152 15.006c0 .656-1.544.996-3.165 1.03V2.33c2.208-8.372 17.316 8.693 3.165 12.676z" fill="#988371"/><path d="M22.34 4.323c1.277 4.225-2.83 6.7-4.583 4.465h-1.77V5.12z" fill="#cbeb6b"/><ellipse cx="19.392" cy="6.874" rx=".877" ry="1.515" fill="#abb2b1"/><circle cx="19.494" cy="6.156" r=".45" fill="#e3e5e5"/><path d="M19.043 11.023c0-.215-1.528-.322-3.056-.322V9.628c1.528 0 3.056.465 3.056 1.395z" fill="#d9f07d"/><ellipse cx="18.407" cy="12.401" rx="2.42" ry="1.743" fill="#9d8978"/><ellipse cx="18.407" cy="12.401" rx=".678" ry=".384" transform="rotate(-60 18.407 12.401)" fill="#2b3332"/><path d="M19.648 17.597c.17.61.36 1.22.578 1.828a42.177 42.177 0 01-4.24.19v-1.912a61.187 61.187 0 003.662-.106zm1.342 3.805c.361.88.74 1.759 1.118 2.638-1.481.116-3.812.171-6.121.168V21.5c1.789.002 3.59-.03 5.002-.098zM22 26.161c-2 3.282-3.476 3.464-6.013 3.464v-2.871A26.854 26.854 0 0022 26.16z" fill="#cbeb6b"/></svg>
